X:41
T:Steyrer Tanz - Clarinetto - in C, nr. 4
C:traditionell
R:Steirer
A:Hallstatt, Salzkammergut
B:Corpus Musicae Popularis Austriacae (COMPA), 5.Band: J.M.Schmalnauer " Tanz Musik", Verlag Boehlau, Wien 1996
S:manuscript des Johann Michael Schmalnauer um 1820
N:im der quelle in C
N:um1800
N:in der Handschrift keine 2 .Stimme
M:3/4
L:1/8
K:C
ce |\
Bdfagf | eg (c3 e/g/) | fGfG Bd | ceGece |\
Bdfagf | eg (c3 e/g/) | fGfG Bd | c4 :|
